!!!SOCIAL_FUNCTION:	songs used in treatment of the sick
!!!PDT:	1918

Specific Region: Dakotas, Minnesota, Montana, Nebraska
!!!REG: Dakotas and Montana
!!!LING_GROUP: Siouan
!!!LANG: Tone
!!!OTL@ENG: An Appeal to the Bear
!!!ONM: No. 87
**kern
*Imale
*clefF4
*k[b-e-a-d-g-c-]
*M2/4
*>[A,B,B]
*>norep[A,B]
*>A
*MM84
8e-
8e-
8e-
8e-
=2
[2B-
=3
2B-]
*>B
=4!|:
8c-
8B-
8c-
8B-
=5||
*M3/4
2.A-
=6
16G-
8.G-
8G-
8G-
8E-
8E-
=7
2.E-
=8||
*M2/4
8B-
8A-
8B-
8A-
=9||
*M3/4
2.G-
=10
16A-
8.G-
8G-
8G-
8E-
8E-
=11||
*M2/4
2E-
=12
2E-
==:|!
*-
!!!CNT: Native American -- Sioux
!!!MRD: 1911/07//-1914///
!!!OCL: Frances Densmore
!!!YOR1: Teton Sioux Music, Bulletin 61,
!!!YOR2: Bureau of American Ethnology, Smithsonian Institution
!!!PPR: Government Printing Office
!!!PPP: Washington, D.C.
!!!PDT: 1918///
!!!ENC: Craig Stuart Sapp
!!!END: 2002/03/25/
!!!EEV: 2002/03/31/
!!!AGN: Song of Personal Dreams/Song Used in Treatment of the Sick
!!!MPN@@SIO: Wangbli'-waha'chungka
!!!MPN@ENG: Eagle Shield
!!!TXO: Teton Sioux
!!!MLC: Standing Rock Reservation, South Dakota, United States of America
!!!ARL: 45.9/-100.7#
!!!catalog: Catalogue No. 517
!!!PPG: 263
!!!EFL: 87/245
!!!VTS: 3339510706
